X:1
T:BRAVEHEART
N:Very common tune.
Z:
C:Arr. SSgt 14925 & CPL 20280
R:March
M:6/8
L:1/8
Q:
K:HP
|: e | A3/2e/2{A}e {gef}e2d | {g}e2g3/2f {gef}e2d | {a}f2 fg/2f/2 {g}e2 d2 | {GdGB}d6 e2 | {gBd}B4  {g}B2 d2 |
\
| {gef}e6 g2 | {a}f2 fg/2f/2 {g}e2 d2 | {GdGB}d4 e4 :| AB/2c/2 d2 dc {gBd}BA |
\
|a2 f/2a3/2 a4 | {gf}g3/2f/2  {g}f/2e3/2 d2 c2 | {gcd}cA  B3/2c/2 B4 | AB/2c/2 d2 dc {gBd}BA |
\
|a2 f/2a3/2 a4 | {gf}g3/2f/2 | {g}f/2e3/2 d2 c2 {gcd}cA | BcB A2 |]
